packages/assets/static/images/icons/bg-checklist.svg

<svg width="24" height="24" viewBox="0 0 24 24" xmlns="http://www.w3.org/2000/svg">
<path d="M20.5 12.0001C20.5 12.199 20.421 12.3897 20.2803 12.5304C20.1397 12.671 19.9489 12.7501 19.75 12.7501H11.5C11.3011 12.7501 11.1103 12.671 10.9697 12.5304C10.829 12.3897 10.75 12.199 10.75 12.0001C10.75 11.8011 10.829 11.6104 10.9697 11.4697C11.1103 11.3291 11.3011 11.2501 11.5 11.2501H19.75C19.9489 11.2501 20.1397 11.3291 20.2803 11.4697C20.421 11.6104 20.5 11.8011 20.5 12.0001ZM11.5 6.75005H19.75C19.9489 6.75005 20.1397 6.67103 20.2803 6.53038C20.421 6.38973 20.5 6.19896 20.5 6.00005C20.5 5.80114 20.421 5.61037 20.2803 5.46972C20.1397 5.32907 19.9489 5.25005 19.75 5.25005H11.5C11.3011 5.25005 11.1103 5.32907 10.9697 5.46972C10.829 5.61037 10.75 5.80114 10.75 6.00005C10.75 6.19896 10.829 6.38973 10.9697 6.53038C11.1103 6.67103 11.3011 6.75005 11.5 6.75005ZM19.75 17.2501H11.5C11.3011 17.2501 11.1103 17.3291 10.9697 17.4697C10.829 17.6104 10.75 17.8011 10.75 18.0001C10.75 18.199 10.829 18.3897 10.9697 18.5304C11.1103 18.671 11.3011 18.7501 11.5 18.7501H19.75C19.9489 18.7501 20.1397 18.671 20.2803 18.5304C20.421 18.3897 20.5 18.199 20.5 18.0001C20.5 17.8011 20.421 17.6104 20.2803 17.4697C20.1397 17.3291 19.9489 17.2501 19.75 17.2501ZM7.21936 3.96943L4.74999 6.43974L3.78061 5.46943C3.63988 5.3287 3.44901 5.24963 3.24999 5.24963C3.05097 5.24963 2.8601 5.3287 2.71936 5.46943C2.57863 5.61016 2.49957 5.80103 2.49957 6.00005C2.49957 6.19907 2.57863 6.38995 2.71936 6.53068L4.21936 8.03068C4.28902 8.10041 4.37174 8.15573 4.46278 8.19347C4.55383 8.23121 4.65143 8.25064 4.74999 8.25064C4.84855 8.25064 4.94615 8.23121 5.03719 8.19347C5.12824 8.15573 5.21096 8.10041 5.28061 8.03068L8.28061 5.03068C8.42135 4.88995 8.50041 4.69907 8.50041 4.50005C8.50041 4.30103 8.42135 4.11016 8.28061 3.96943C8.13988 3.8287 7.94901 3.74963 7.74999 3.74963C7.55097 3.74963 7.3601 3.8287 7.21936 3.96943ZM7.21936 9.96943L4.74999 12.4397L3.78061 11.4694C3.63988 11.3287 3.44901 11.2496 3.24999 11.2496C3.05097 11.2496 2.8601 11.3287 2.71936 11.4694C2.57863 11.6102 2.49957 11.801 2.49957 12.0001C2.49957 12.0986 2.51898 12.1962 2.55669 12.2872C2.59441 12.3783 2.64968 12.461 2.71936 12.5307L4.21936 14.0307C4.28902 14.1004 4.37174 14.1557 4.46278 14.1935C4.55383 14.2312 4.65143 14.2506 4.74999 14.2506C4.84855 14.2506 4.94615 14.2312 5.03719 14.1935C5.12824 14.1557 5.21096 14.1004 5.28061 14.0307L8.28061 11.0307C8.42135 10.8899 8.50041 10.6991 8.50041 10.5001C8.50041 10.301 8.42135 10.1102 8.28061 9.96943C8.13988 9.82869 7.94901 9.74963 7.74999 9.74963C7.55097 9.74963 7.3601 9.82869 7.21936 9.96943ZM7.21936 15.9694L4.74999 18.4397L3.78061 17.4694C3.71093 17.3997 3.62821 17.3445 3.53716 17.3068C3.44612 17.269 3.34854 17.2496 3.24999 17.2496C3.15144 17.2496 3.05386 17.269 2.96282 17.3068C2.87177 17.3445 2.78905 17.3997 2.71936 17.4694C2.64968 17.5391 2.59441 17.6218 2.55669 17.7129C2.51898 17.8039 2.49957 17.9015 2.49957 18.0001C2.49957 18.0986 2.51898 18.1962 2.55669 18.2872C2.59441 18.3783 2.64968 18.461 2.71936 18.5307L4.21936 20.0307C4.28902 20.1004 4.37174 20.1557 4.46278 20.1935C4.55383 20.2312 4.65143 20.2506 4.74999 20.2506C4.84855 20.2506 4.94615 20.2312 5.03719 20.1935C5.12824 20.1557 5.21096 20.1004 5.28061 20.0307L8.28061 17.0307C8.42135 16.8899 8.50041 16.6991 8.50041 16.5001C8.50041 16.301 8.42135 16.1102 8.28061 15.9694C8.13988 15.8287 7.94901 15.7496 7.74999 15.7496C7.55097 15.7496 7.3601 15.8287 7.21936 15.9694Z"/>
</svg>

<svg viewBox="0 0 24 24" xmlns="http://www.w3.org/2000/svg" aria-hidden="true" fill="currentColor"><path d="M20.5 12a.75.75 0 0 1-.75.75H11.5a.75.75 0 0 1 0-1.5h8.25a.75.75 0 0 1 .75.75m-9-5.25h8.25a.75.75 0 1 0 0-1.5H11.5a.75.75 0 1 0 0 1.5m8.25 10.5H11.5a.75.75 0 1 0 0 1.5h8.25a.75.75 0 0 0 0-1.5M7.22 3.97 4.75 6.44l-.97-.97a.75.75 0 1 0-1.06 1.06l1.5 1.5a.75.75 0 0 0 1.06 0l3-3a.75.75 0 1 0-1.06-1.06m0 6-2.47 2.47-.97-.97a.75.75 0 0 0-1.06 1.06l1.5 1.5a.75.75 0 0 0 1.06 0l3-3a.75.75 0 0 0-1.06-1.06m0 6-2.47 2.47-.97-.97a.75.75 0 1 0-1.06 1.06l1.5 1.5a.75.75 0 0 0 1.06 0l3-3a.75.75 0 0 0-1.06-1.06"/></svg>
